!!!COM: Hugo Wolf
!!!CNT: Deutscher
!!!TXO: Deutsche 
!!!OTL: Lebe wohl
!!!ONM: No. 36
!!!ODT: 1888/
!!!LYR: Moericke
!!!ENC: Brian Bice
!!!YOR: 65 Songs for voice and piano, International Music Company, 1960
!!NB: Vocal melody and text only encoded.
**kern	**silbe
*clefG2	*
*k[b-e-a-d-g-c-]	*
*M4/4	*
=1	=1
8r	.
{4b-	{"Le-
8b--	-be
2a-	wohl!"
=2	=2
8r	.
8ee-	Du
8.ee-	fu2h-
16ee-	-lest
(4ee-	nicht,
4ddn)}	|}
=3	=3
8r	.
{4ee-	{was
8gg-	es
[2gg-	heisst,
=4	=4
8gg-]	|
8a-	dies
8.cc-	Wort
16b-	der
8.a-	Schmer-
16gn	|
4gn}	-zen;}
=5	=5
2r	.
8r	.
{4ccn	{mit
8ccn	ge-
=6	=6
(8ee-	-tro-
4dd-)	|
8ccn	-stem
8.ccn	An-
16bn	-ge-
4bn}	-sicht}
=7	=7
8r	.
{4ff	{sag-
8a-	-test
4.gn	du's
8b-	und
=8	=8
4.ee-	leich-
8e-	-tem
8g-	Her-
8f}	-zen.}
4r	.
=10	=10
8r	.
{4cc	{Le-
8b-	-be
2an	wohl!
=11	=11
4r	.
8r	.
8ff	Ach
8.ff	tau-
16f	-send-
8f	-mal
8gn}	|}
=12	=12
{8a-	{hab
8b-	ich
8ccn	mir
8ff	es
8.ee-	vor-
16ddn	-ge-
8ee-	-spro-
8ff}	-chen,}
=13	=13
8r	.
{4b-	{und
8ff	in
8ff	nim-
8een	-mer-
8ff	-sat-
8ggn	-ter
=14	=14
[2aa-	Qual
8aa-]}	|}
{4a-	{mir
8a-	das
=15	=15
4.an	Harz
8dn	da-
4.dn	-mit
8d-	ge-
=16	=16
(4f-	-bro-
2e-)	|
4g-}	-chen!}
*-	*-
